tools/download-figma-icons/icons/outlined-medium/cash-out.svg

<svg width="24" height="24" viewBox="0 0 24 24" fill="none" xmlns="http://www.w3.org/2000/svg">
<path fill-rule="evenodd" clip-rule="evenodd" d="M1.5125 4.90001C1.5125 3.14608 5.05924 1.4 9.47509 1.4C13.8909 1.4 17.4376 3.14606 17.4376 4.90001H18.5751C18.5751 2.02227 14.4674 0 9.47509 0C4.48278 0 0.375 2.02228 0.375 4.90001H1.5125ZM9.47501 8.40011C13.8909 8.40011 17.4376 6.65403 17.4376 4.9001H18.5751L18.5751 4.90022V9.34799L18.5751 9.35449V10.4337C18.1608 10.3617 17.7347 10.3242 17.2998 10.3242C17.2026 10.3242 17.106 10.3261 17.0097 10.3298C17.286 10.0119 17.4364 9.68119 17.4376 9.35207V9.09998L17.4376 7.34353C15.8796 8.85748 12.8834 9.80011 9.47501 9.80011C6.06663 9.80011 3.07059 8.85749 1.51256 7.34357V9.34799C1.51256 10.954 5.06599 12.6002 9.47502 12.6002C10.4223 12.6002 11.3301 12.5243 12.1716 12.389C11.6935 12.8486 11.2771 13.3718 10.9359 13.945C10.4599 13.9815 9.9719 14.0002 9.47502 14.0002C6.063 14.0002 3.06942 13.1152 1.51255 11.6782V13.2999V13.5478C1.51255 15.1538 5.06599 16.8 9.47501 16.8C9.63694 16.8 9.79771 16.7978 9.95719 16.7934C9.91888 17.0985 9.89914 17.4094 9.89914 17.7248C9.89914 17.8828 9.90409 18.0396 9.91384 18.1951C9.7684 18.1984 9.62209 18.2 9.47501 18.2C6.063 18.2 3.06943 17.315 1.51255 15.8779V17.7477C1.51255 19.3537 5.06599 21 9.47501 21C9.87173 21 10.2615 20.9866 10.6424 20.9612C10.8739 21.4365 11.1548 21.8833 11.4784 22.2949C10.8331 22.364 10.1626 22.4 9.47501 22.4C4.47591 22.4 0.37505 20.5001 0.37505 17.7477V13.5478V13.2999V9.09998H0.375057V4.90689L0.37505 4.9001H1.51255V4.90022H1.51256V4.90456C1.51856 6.65701 5.06292 8.40011 9.47501 8.40011Z" fill="black"/>
<path fill-rule="evenodd" clip-rule="evenodd" d="M17.2996 22.7854C20.0946 22.7854 22.3604 20.5196 22.3604 17.7246C22.3604 14.9296 20.0946 12.6638 17.2996 12.6638C14.5046 12.6638 12.2388 14.9296 12.2388 17.7246C12.2388 20.5196 14.5046 22.7854 17.2996 22.7854ZM17.2996 24C20.7654 24 23.575 21.1904 23.575 17.7246C23.575 14.2588 20.7654 11.4492 17.2996 11.4492C13.8338 11.4492 11.0242 14.2588 11.0242 17.7246C11.0242 21.1904 13.8338 24 17.2996 24Z" fill="black"/>
<path fill-rule="evenodd" clip-rule="evenodd" d="M20.9123 17.896C20.9123 17.8954 20.9123 17.8948 20.9123 17.894C20.9123 17.8937 20.9123 17.8943 20.9123 17.894C20.9121 17.8396 20.9017 17.787 20.8843 17.7389C20.8835 17.7366 20.883 17.7347 20.8822 17.7324C20.8619 17.6792 20.8318 17.6314 20.7944 17.5918L18.7182 15.377C18.5619 15.2103 18.3088 15.2103 18.1525 15.377C17.9962 15.5434 17.9962 15.8137 18.1525 15.9804L19.55 17.4712L14.8457 17.4871C14.6249 17.488 14.4462 17.6797 14.447 17.9153C14.4476 18.1509 14.6268 18.3406 14.8471 18.3406H14.8484L19.5436 18.3247L18.1157 19.8479C17.9594 20.0146 17.9594 20.2846 18.1157 20.4514C18.1939 20.5347 18.296 20.5765 18.3984 20.5765C18.5008 20.5765 18.6032 20.5347 18.6814 20.4514L20.7955 18.1964C20.8323 18.1569 20.8622 18.1091 20.8825 18.0564C20.8833 18.0547 20.8835 18.0527 20.8841 18.0507C20.9019 18.0027 20.9121 17.9506 20.9123 17.896Z" fill="black"/>
</svg>

<svg xmlns="http://www.w3.org/2000/svg" width="24" height="24" fill="none" viewBox="0 0 24 24"><path fill="currentColor" fill-rule="evenodd" d="M1.513 4.9c0-1.754 3.546-3.5 7.962-3.5s7.963 1.746 7.963 3.5h1.137c0-2.878-4.108-4.9-9.1-4.9s-9.1 2.022-9.1 4.9zm7.962 3.5c4.416 0 7.963-1.746 7.963-3.5h1.137v5.534a7.4 7.4 0 0 0-1.565-.104c.276-.318.426-.649.428-.978V7.344C15.88 8.857 12.883 9.8 9.475 9.8s-6.404-.943-7.962-2.456v2.004c0 1.606 3.553 3.252 7.962 3.252a17 17 0 0 0 2.697-.211c-.479.46-.895.983-1.236 1.556Q10.22 14 9.475 14c-3.412 0-6.406-.885-7.962-2.322v1.87c0 1.606 3.553 3.252 7.962 3.252q.243 0 .482-.007a7.5 7.5 0 0 0-.043 1.402q-.219.005-.439.005c-3.412 0-6.406-.885-7.962-2.322v1.87C1.513 19.354 5.066 21 9.475 21q.596 0 1.167-.039.35.715.836 1.334-.97.104-2.003.105c-5 0-9.1-1.9-9.1-4.652V4.9h1.138v.005C1.519 6.657 5.063 8.4 9.475 8.4" clip-rule="evenodd"/><path fill="currentColor" fill-rule="evenodd" d="M17.3 22.785a5.06 5.06 0 1 0 0-10.121 5.06 5.06 0 0 0 0 10.121m0 1.215a6.275 6.275 0 1 0 0-12.55 6.275 6.275 0 0 0 0 12.55" clip-rule="evenodd"/><path fill="currentColor" fill-rule="evenodd" d="M20.912 17.896v-.002a.5.5 0 0 0-.028-.155l-.002-.007a.4.4 0 0 0-.088-.14l-2.076-2.215a.38.38 0 0 0-.566 0 .447.447 0 0 0 0 .603l1.398 1.491-4.704.016c-.221.001-.4.193-.399.428 0 .236.18.426.4.426h.001l4.696-.016-1.428 1.523a.447.447 0 0 0 0 .603c.078.084.18.125.282.125a.4.4 0 0 0 .283-.125l2.114-2.255a.4.4 0 0 0 .087-.14l.002-.005a.5.5 0 0 0 .028-.155" clip-rule="evenodd"/></svg>
